X: 39569
T: Teddy O'Neill
R: waltz
M: 3/4
K: Gmajor
DG2 B3|BB2 B3|AB2 c3|EA2 G3|
FE2 D3|EF2 G3|FG2 B3|AG2 A3|
DG2 B3|BB2 B3|AB2 c3|EA2 G3|
FE2 D3|GB2 d3|cB2 A3|EF2 G3|
FG2 A3|AA2 A3|AB2 c3|BA2 B3|
GF2 G3|FG2 G3|FG2 B3|AG2 A3|
DG2 B3|BB2 B3|AB2 c3|EA2 G3|
FE2 D3|GB2 d3|cB2 A3|EF2 G3|

